icon.svg

<svg viewBox="0 0 52 52" xmlns="http://www.w3.org/2000/svg" fill-rule="evenodd" clip-rule="evenodd" stroke-linejoin="round" stroke-miterlimit="1.414"><path d="M25 44s-3.101.068-14 0C.101 43.932-2.017 16.988 13 17c.048-9.03 5.911-10.911 10-11 .078 2.946 0 7 0 7l-11 9 14 12 .544-5.377 7.649 6.514L25 44z" fill="#0dcaf2"/><path d="M18 22l9-8s-.05-2.308 0-8c11.05.125 10.938 7.173 11 11 17.861-.085 14.725 26.865 3 27-11.725.135-12 0-12 0l10-9-15-12v5l-6-6z" fill="#33ccb1"/></svg>

<?xml version="1.0" encoding="UTF-8" standalone="no"?>
<!DOCTYPE svg PUBLIC "-//W3C//DTD SVG 1.1//EN" "http://www.w3.org/Graphics/SVG/1.1/DTD/svg11.dtd">
<svg width="100%" height="100%" viewBox="0 0 52 52" version="1.1" xmlns="http://www.w3.org/2000/svg" xmlns:xlink="http://www.w3.org/1999/xlink" xml:space="preserve" xmlns:serif="http://www.serif.com/" style="fill-rule:evenodd;clip-rule:evenodd;stroke-linejoin:round;stroke-miterlimit:1.41421;">
    <path d="M25,44C25,44 21.899,44.068 11,44C0.101,43.932 -2.017,16.988 13,17C13.048,7.97 18.911,6.089 23,6C23.078,8.946 23,13 23,13L12,22L26,34L26.544,28.623L34.193,35.137L25,44Z" style="fill:rgb(13,202,242);"/>
    <path d="M18,22L27,14C27,14 26.95,11.692 27,6C38.05,6.125 37.938,13.173 38,17C55.861,16.915 52.725,43.865 41,44C29.275,44.135 29,44 29,44L39,35L24,23L24,28L18,22Z" style="fill:rgb(51,204,177);"/>
</svg>
